X:14297
T:Riley's Favorite Reel
M:4/4
L:1/8
K:D
FE|D2 DF A2 AB|AFdB AFDF|Eeed e2 ef|gfed B2 d2|!
D2 DF A2 AB|AFdB AFDF|G2 BG F2 AF|GABc d2:|!
|:A2|dcde dAFA|dcdB A2 FD|edef ecBA|gfed B2 A2|!
dcde dAFA|dcdB AFDF|G2 BG F2 AF|GABc d2:|!
